!!!OTL: Haimen Shange,jiaoguanduo
!!!ARE: Asia, China,ÿJiangsu Haimen
!! III, 430
!!!SCT: C1782
!!!YEM: Copyright 1995, estate of Helmut Schaffrath.
**kern
*ICvox
*Ivox
!! Mixed meters:  2/4; 3/8
*M3/8
*k[b-]
*F:
{8a
8cc
1dd}
=1
{8cc
8dd
8dd
16cc
16a
8ff
16cc
16dd
8dd
16cc
16a
8ff
16cc
16dd
16dd
16cc
16a
32cc
32a
16g
16a
2g
8a}
{16dd
16ff
16cc
16dd
8dd
8cc
8cc
4f
8d
16f
16g
16a
16cc
16cc
16a
4g
8f
2d}
{16d
8.f
8d
8g
8f
4r}
{16a
8.cc
8a
8dd
8cc
4r}
{8dd
16cc
16a
16ff
16dd
16dd
16cc}
{16a
16ff
16a
16cc
16dd
32ee
32dd
16cc
16a}
{16ff
16dd
16dd
16cc
16a
16dd
8cc}
{16a
16ff
16dd
16cc
16a
16a
8cc}
{16a
16dd
16dd
16cc
16ff
16ff
16dd
16cc}
{16a
16ff
16dd
16cc
16a
16a
8cc}
{4r
8r
16cc
16a
=2
16ff
16ff
16dd
16cc
16a
16cc
16dd
32ee
32dd
=3
16cc
16a
4g
8a}
=4
{16ff
16ff
16dd
16cc
16a
16cc
8dd
=5
16cc
16a
4g}
=6
{8a
=7
*M2/4
8cc
16cc
16cc
8a
8g
=8
8a
16g
16f
8d
16d
16f
=9
2r}
=10
{16a
16ff
16dd
32cc
32cc
8a
16cc
16a
=11
8cc
16dd
16ff
8dd
16cc
16a
=12
*M3/8
16cc
16a
4g}
=13
*M2/4
{16cc
32a
32cc
16dd
16a
16g
16a
16g
16f
=14
16g
16f
4.d}
==
!!!AGN: Shange
!! Freely
!!!AMT: irregular
!!!AIN: vox
!!!EED: Helmut Schaffrath
!!!EEV: 1.0
*-
